<?xml version="1.0" encoding="UTF-8"?>
<map version="1.4" tiledversion="1.12.2" orientation="orthogonal" renderorder="right-down" width="30" height="15" tilewidth="48" tileheight="48" infinite="0" nextlayerid="6" nextobjectid="1">
 <tileset firstgid="1" name="MAP4" tilewidth="48" tileheight="48" tilecount="240" columns="16">
  <image source="MAP4.png" width="768" height="720"/>
 </tileset>
 <tileset firstgid="241" name="ITEM01" tilewidth="48" tileheight="48" tilecount="192" columns="16">
  <image source="ITEM01.png" width="768" height="576"/>
 </tileset>
 <layer id="1" name="BG" width="30" height="15">
  <data encoding="csv">
71,71,71,71,71,71,71,71,71,71,71,71,71,71,71,71,71,71,71,71,71,71,71,71,71,71,71,71,71,71,
71,71,71,71,71,71,71,71,71,71,71,71,71,71,71,71,71,71,71,71,71,71,71,71,71,71,71,71,71,71,
71,71,71,71,71,71,71,71,71,71,71,71,71,71,71,71,71,71,71,71,71,71,71,71,71,71,71,71,71,71,
71,71,71,71,71,71,71,71,71,71,71,71,71,71,71,71,71,71,71,71,71,71,71,71,71,71,71,71,71,71,
71,71,71,71,71,71,71,71,71,71,71,71,71,71,71,71,71,71,71,71,71,71,71,71,71,71,71,71,71,71,
71,71,71,71,71,71,71,71,71,71,71,71,71,71,71,71,71,71,71,71,71,71,71,71,71,71,71,71,71,71,
71,71,71,71,71,71,71,71,71,71,71,71,71,71,71,71,71,71,71,71,71,71,71,71,71,71,71,71,71,71,
71,71,71,71,71,71,71,71,71,71,71,71,71,71,71,71,71,71,71,71,71,71,71,71,71,71,71,71,71,71,
71,71,71,71,71,71,71,71,71,71,71,71,71,71,71,71,71,71,71,71,71,71,71,71,71,71,71,71,71,71,
71,71,71,71,71,71,71,71,71,71,71,71,71,71,71,71,71,71,71,71,71,71,71,71,71,71,71,71,71,71,
71,71,71,71,71,71,71,71,71,71,71,71,71,71,71,71,71,71,71,71,71,71,71,71,71,71,71,71,71,71,
71,71,71,71,71,71,71,71,71,71,71,71,71,71,71,71,71,71,71,71,71,71,71,71,71,71,71,71,71,71,
71,71,71,71,71,71,71,71,71,71,71,71,71,71,71,71,71,71,71,71,71,71,71,71,71,71,71,71,71,71,
71,71,71,71,71,71,71,71,71,71,71,71,71,71,71,71,71,71,71,71,71,71,71,71,71,71,71,71,71,71,
71,71,71,71,71,71,71,71,71,71,71,71,71,71,71,71,71,71,71,71,71,71,71,71,71,71,71,71,71,71
</data>
 </layer>
 <layer id="2" name="road" width="30" height="15">
  <data encoding="csv">
0,0,0,0,0,0,0,0,0,0,0,0,0,0,0,0,0,0,0,0,0,0,0,0,0,0,0,0,0,0,
0,0,0,0,0,0,0,0,0,0,0,0,0,0,0,0,0,0,0,0,0,0,0,0,0,0,0,0,0,0,
0,0,0,0,0,0,0,0,0,0,0,0,0,0,0,0,0,0,0,0,0,0,0,0,0,0,0,0,0,0,
0,0,0,0,0,0,0,0,0,0,0,0,0,0,0,0,0,0,0,0,0,0,0,0,0,0,0,0,0,0,
0,0,0,0,0,0,0,0,0,0,0,0,0,0,0,0,0,0,0,0,0,0,0,0,0,0,0,0,0,0,
0,0,0,0,0,0,0,0,0,0,0,0,0,0,0,0,0,0,0,0,0,0,0,0,0,0,0,0,0,0,
55,55,55,55,55,55,55,55,55,55,55,55,55,55,55,55,55,55,55,55,55,55,55,55,55,55,55,55,55,55,
149,149,149,149,149,149,149,149,149,149,149,149,149,149,149,149,149,149,149,149,149,149,149,149,149,149,149,149,149,149,
183,183,183,183,165,182,172,183,183,183,183,183,183,183,183,183,183,183,183,183,183,183,183,165,54,172,183,183,183,183,
0,0,0,0,181,182,188,0,0,0,0,0,0,0,0,0,0,0,0,0,0,0,0,53,54,188,0,0,0,0,
0,0,0,0,181,182,188,0,0,0,0,0,0,0,0,0,0,0,0,0,0,0,0,53,54,188,0,0,0,0,
0,0,0,0,181,182,188,0,0,0,0,0,0,0,0,0,0,0,0,0,0,0,0,53,54,188,0,0,0,0,
0,0,0,0,181,182,188,0,0,0,0,0,0,0,0,0,0,0,0,0,0,0,0,53,54,188,0,0,0,0,
0,0,0,0,181,182,188,0,0,0,0,0,0,0,0,0,0,0,0,0,0,0,0,53,54,188,0,0,0,0,
0,0,0,0,181,182,188,0,0,0,0,0,0,0,0,0,0,0,0,0,0,0,0,53,54,188,0,0,0,0
</data>
 </layer>
 <layer id="3" name="Wall" width="30" height="15">
  <data encoding="csv">
0,0,0,0,0,0,0,0,0,0,0,0,0,0,0,0,0,53,54,60,0,0,0,0,0,0,0,0,0,0,
14,15,15,15,15,15,15,15,15,15,3,0,0,0,0,0,0,53,54,60,0,1,2,2,3,0,0,0,0,0,
30,31,31,31,31,31,31,31,31,31,19,0,0,0,0,0,0,53,54,60,0,17,18,18,19,0,0,0,0,0,
46,47,47,47,47,47,47,47,47,47,35,0,0,0,0,0,0,53,54,60,0,33,34,34,35,1,3,0,0,0,
80,79,80,79,80,79,80,79,80,79,80,0,0,0,0,0,0,53,54,60,0,65,67,68,65,33,35,0,0,0,
96,95,96,95,96,95,96,95,96,95,96,0,0,0,0,0,0,53,54,60,0,81,83,84,81,39,39,0,0,0,
0,0,0,0,0,0,0,0,0,0,0,0,0,0,0,0,0,69,54,76,0,0,0,0,0,0,0,0,0,0,
0,0,0,0,0,0,0,0,0,0,0,0,0,0,0,0,0,0,0,0,0,0,0,0,0,0,0,0,0,0,
0,0,0,0,0,0,0,0,0,0,0,0,0,0,0,0,0,0,0,0,0,0,0,0,0,0,0,0,0,0,
0,0,0,0,0,0,0,0,0,0,1,2,2,2,2,2,2,2,3,0,0,0,0,0,0,0,0,0,0,0,
0,0,0,0,0,0,0,0,0,0,17,18,18,18,18,18,18,18,19,0,0,0,0,0,0,0,0,0,0,0,
0,0,0,0,0,0,0,0,0,0,33,34,34,34,34,34,34,34,35,0,0,0,0,0,0,0,0,0,0,0,
0,0,0,0,0,0,0,0,0,0,49,50,51,52,50,51,52,50,49,0,0,0,0,0,0,0,0,0,0,0,
0,0,0,0,0,0,0,0,0,0,65,37,37,66,66,66,37,37,65,0,0,0,0,0,0,0,0,0,0,0,
0,0,0,0,0,0,0,0,0,0,81,83,84,82,82,82,83,84,81,0,0,0,0,0,0,0,0,0,0,0
</data>
 </layer>
 <layer id="5" name="item" width="30" height="15">
  <data encoding="csv">
353,0,0,0,0,0,0,0,353,0,0,0,0,0,0,0,0,0,0,0,0,0,0,0,0,0,0,0,0,0,
369,0,0,0,0,0,0,0,369,0,0,0,0,0,0,0,0,0,0,0,0,0,0,0,0,0,0,0,0,0,
0,0,370,0,0,0,0,0,0,0,0,385,386,389,390,0,0,0,0,0,0,0,371,0,0,0,0,0,0,0,
0,0,0,0,0,0,0,0,0,0,0,0,0,387,0,87,0,0,0,0,0,0,0,0,0,0,0,0,0,0,
0,0,0,0,0,0,0,0,0,0,0,0,0,403,0,0,0,0,0,0,0,0,0,0,0,0,0,0,0,0,
0,0,0,0,0,0,0,0,0,0,0,0,0,419,0,0,0,0,0,0,0,0,0,0,0,0,0,405,406,0,
0,0,0,0,0,0,0,0,0,0,0,0,0,0,0,0,0,0,0,0,0,0,0,0,0,0,0,0,0,0,
0,0,0,0,0,0,0,0,0,0,0,0,0,0,0,0,0,0,0,0,0,0,0,0,0,0,0,0,0,0,
0,0,0,0,0,0,0,0,0,0,0,0,0,0,0,0,0,0,0,0,0,0,0,0,0,0,0,0,0,0,
0,0,0,0,0,0,0,0,0,0,0,0,0,0,0,0,0,0,0,0,371,0,0,0,0,0,0,0,0,0,
0,0,0,0,0,0,0,0,0,0,0,0,0,0,0,0,0,0,0,0,0,0,0,0,0,0,0,0,0,0,
0,0,0,0,0,0,0,0,0,0,0,0,0,0,0,0,0,0,0,0,0,0,0,0,0,0,0,0,0,0,
0,0,0,0,0,0,0,0,0,0,0,0,0,0,0,0,0,0,0,354,0,0,0,0,0,0,0,0,0,0,
0,0,0,0,0,0,0,0,0,0,0,0,0,0,0,0,0,0,0,0,0,0,0,0,0,0,0,0,0,0,
0,0,0,0,0,0,0,0,401,402,0,0,0,0,0,0,0,0,0,0,0,0,0,0,0,0,0,0,0,0
</data>
 </layer>
</map>
