<?xml version="1.0" encoding="UTF-8"?>
<map version="1.4" tiledversion="1.12.2" orientation="orthogonal" renderorder="right-down" width="30" height="20" tilewidth="48" tileheight="48" infinite="0" nextlayerid="6" nextobjectid="1">
 <tileset firstgid="1" name="MAP4" tilewidth="48" tileheight="48" tilecount="240" columns="16">
  <image source="MAP4.png" width="768" height="720"/>
 </tileset>
 <tileset firstgid="241" name="ITEM01" tilewidth="48" tileheight="48" tilecount="192" columns="16">
  <image source="ITEM01.png" width="768" height="576"/>
 </tileset>
 <layer id="1" name="BG" width="30" height="20">
  <data encoding="csv">
71,71,71,71,71,71,71,71,71,71,71,71,71,71,71,71,71,71,71,71,71,71,71,71,71,71,71,71,71,71,
71,71,71,71,71,71,71,71,71,71,71,71,71,71,71,71,71,71,71,71,71,71,71,71,71,71,71,71,71,71,
71,71,71,71,71,71,71,71,71,71,71,71,71,71,71,71,71,71,71,71,71,71,71,71,71,71,71,71,71,71,
71,71,71,71,71,71,71,71,71,71,71,71,71,71,71,71,71,71,71,71,71,71,71,71,71,71,71,71,71,71,
71,71,71,71,71,71,71,71,71,71,71,71,71,71,71,71,71,71,71,71,71,71,71,71,71,71,71,71,71,71,
71,71,71,71,71,71,71,71,71,71,71,71,71,71,71,71,71,71,71,71,71,71,71,71,71,71,71,71,71,71,
71,71,71,71,71,71,71,71,71,71,71,71,71,71,71,71,71,71,71,71,71,71,71,71,71,71,71,71,71,71,
71,71,71,71,71,71,71,71,71,71,71,71,71,71,71,71,71,71,71,71,71,71,71,71,71,71,71,71,71,71,
71,71,71,71,71,71,71,71,71,71,71,71,71,71,71,71,71,71,71,71,71,71,71,71,71,71,71,71,71,71,
71,71,71,71,71,71,71,71,71,71,71,71,71,71,71,71,71,71,71,71,71,71,71,71,71,71,71,71,71,71,
71,71,71,71,71,71,71,71,71,71,71,71,71,71,71,71,71,71,71,71,71,71,71,71,71,71,71,71,71,71,
71,71,71,71,71,71,71,71,71,71,71,71,71,71,71,71,71,71,71,71,71,71,71,71,71,71,71,71,71,71,
71,71,71,71,71,71,71,71,71,71,71,71,71,71,71,71,71,71,71,71,71,71,71,71,71,71,71,71,71,71,
71,71,71,71,71,71,71,71,71,71,71,71,71,71,71,71,71,71,71,71,71,71,71,71,71,71,71,71,71,71,
71,71,71,71,71,71,71,71,71,71,71,71,71,71,71,71,71,71,71,71,71,71,71,71,71,71,71,71,71,71,
71,71,71,71,71,71,71,71,71,71,71,71,71,71,71,71,71,71,71,71,71,71,71,71,71,71,71,71,71,71,
71,71,71,71,71,71,71,71,71,71,71,71,71,71,71,71,71,71,71,71,71,71,71,71,71,71,71,71,71,71,
71,71,71,71,71,71,71,71,71,71,71,71,71,71,71,71,71,71,71,71,71,71,71,71,71,71,71,71,71,71,
71,71,71,71,71,71,71,71,71,71,71,71,71,71,71,71,71,71,71,71,71,71,71,71,71,71,71,71,71,71,
71,71,71,71,71,71,71,71,71,71,71,71,71,71,71,71,71,71,71,71,71,71,71,71,71,71,71,71,71,71
</data>
 </layer>
 <layer id="2" name="road" width="30" height="20">
  <data encoding="csv">
0,0,0,0,181,182,188,0,0,0,0,0,0,0,0,0,0,0,0,0,0,0,0,53,54,188,0,0,0,0,
0,0,0,0,181,182,188,0,0,0,0,0,0,0,0,0,0,0,0,0,0,0,0,53,54,188,0,0,0,0,
0,0,0,0,181,182,188,0,0,0,0,0,0,0,0,0,0,0,0,0,0,0,0,53,54,188,0,0,0,0,
0,0,0,0,181,182,188,0,0,0,0,0,0,0,0,0,0,0,0,0,0,0,0,53,54,188,0,0,0,0,
0,0,0,0,181,182,188,0,0,0,0,0,0,0,0,0,0,0,0,0,0,0,0,53,54,188,0,0,0,0,
0,0,0,0,181,182,188,0,0,0,0,0,0,0,0,0,0,0,0,0,0,0,0,53,54,188,0,0,0,0,
0,0,0,0,181,182,188,0,0,0,0,0,0,0,0,0,0,0,0,0,0,0,0,53,54,188,0,0,0,0,
0,0,0,0,181,182,188,0,0,0,0,0,0,0,0,0,0,0,0,0,0,0,0,53,54,188,0,0,0,0,
0,0,0,0,181,182,188,0,0,0,0,0,0,0,0,0,0,0,0,0,0,0,0,53,54,188,0,0,0,0,
0,0,0,0,181,182,188,0,0,0,0,0,0,0,0,0,0,0,0,0,0,0,0,53,54,188,0,0,0,0,
0,0,0,0,181,182,188,0,0,0,0,0,0,0,0,0,0,0,0,0,0,0,0,53,54,188,0,0,0,0,
0,0,0,0,181,182,188,0,0,0,0,0,0,0,0,0,0,0,0,0,0,0,0,53,54,188,0,0,0,0,
0,0,0,0,181,182,188,0,0,0,0,0,0,0,0,0,0,0,0,0,0,0,0,53,54,188,0,0,0,0,
0,0,0,0,181,182,188,0,0,0,0,0,0,0,0,0,0,0,0,0,0,0,0,53,54,188,0,0,0,0,
0,0,0,0,181,182,188,0,0,0,0,0,0,0,0,0,0,0,0,0,0,0,0,53,54,188,0,0,0,0,
0,0,0,0,181,182,188,0,0,0,0,0,0,0,0,0,0,0,0,0,0,0,0,53,54,188,0,0,0,0,
55,55,55,55,69,59,76,55,55,55,55,55,55,55,55,55,55,55,55,55,55,55,55,69,54,76,55,55,55,55,
149,149,149,149,149,149,149,149,149,149,149,149,149,149,149,149,149,149,149,149,149,149,149,149,149,149,149,149,149,149,
183,183,183,183,183,183,183,183,183,183,183,183,183,183,183,183,183,183,183,183,183,183,183,183,183,183,183,183,183,183,
0,0,0,0,0,0,0,0,0,0,0,0,0,0,0,0,0,0,0,0,0,0,0,0,0,0,0,0,0,0
</data>
 </layer>
 <layer id="3" name="Wall" width="30" height="20">
  <data encoding="csv">
0,0,0,0,0,0,0,0,0,0,7,38,38,39,39,39,38,38,23,0,0,0,0,0,0,0,0,0,0,0,
0,0,0,0,0,0,0,0,0,0,0,0,0,0,0,0,0,0,0,0,0,0,0,0,0,0,0,0,0,0,
0,0,0,0,0,0,0,0,0,0,0,0,0,0,0,0,0,0,0,0,0,0,0,0,0,0,0,0,0,0,
0,0,0,0,0,0,0,0,0,0,0,0,0,0,0,0,0,0,0,0,0,0,0,0,0,0,0,0,0,0,
0,0,0,0,0,0,0,0,0,0,0,0,0,0,0,0,0,0,0,0,0,0,0,0,0,0,0,0,0,0,
0,0,0,0,0,0,0,0,0,0,0,0,0,0,0,0,0,0,0,0,0,0,0,0,0,0,0,0,0,0,
0,0,0,0,0,0,0,0,0,0,0,0,0,0,0,0,0,0,0,0,0,0,0,0,0,0,0,0,0,0,
0,0,0,0,0,0,0,0,0,0,0,0,0,0,0,0,0,0,0,0,0,0,0,0,0,0,0,0,0,0,
0,0,0,0,0,0,0,0,0,0,1,2,2,2,3,0,0,0,0,0,0,0,0,0,0,0,0,0,0,0,
0,0,0,0,0,0,0,1,2,3,17,18,18,18,19,0,0,0,0,0,0,0,0,0,0,0,0,0,0,0,
0,0,0,0,0,0,0,17,18,19,33,34,34,34,35,0,0,0,0,0,0,0,0,0,0,0,0,0,0,0,
0,0,0,0,0,0,0,33,34,35,49,50,51,52,49,0,0,0,0,0,0,0,0,0,0,0,0,0,0,0,
0,0,0,0,0,0,0,65,65,65,65,66,67,68,66,0,0,0,0,0,0,0,0,0,0,0,0,0,0,0,
0,0,0,0,0,0,0,81,81,81,81,82,83,84,82,0,0,0,0,0,0,0,0,0,0,0,0,0,0,0,
0,0,0,0,0,0,0,39,39,39,39,7,39,39,23,0,0,0,0,0,0,0,0,0,0,0,0,0,0,0,
0,0,0,0,0,0,0,0,0,0,0,0,0,0,0,0,0,0,0,0,0,0,0,0,0,0,0,0,0,0,
0,0,0,0,0,0,0,0,0,0,0,0,0,0,0,0,0,0,0,0,0,0,0,0,0,0,0,0,0,0,
0,0,0,0,0,0,0,0,0,0,0,0,0,0,0,0,0,0,0,0,0,0,0,0,0,0,0,0,0,0,
0,0,0,0,0,0,0,0,0,0,0,0,0,0,0,0,0,0,0,0,0,0,0,0,0,0,0,0,0,0,
0,0,0,0,0,0,0,0,0,0,0,0,0,0,0,0,0,0,0,0,0,0,0,0,0,0,0,0,0,0
</data>
 </layer>
 <layer id="5" name="item" width="30" height="20">
  <data encoding="csv">
0,0,0,0,0,0,0,0,0,0,0,0,0,0,0,0,0,0,0,371,0,0,0,0,0,0,0,0,0,0,
0,0,0,0,0,0,0,0,0,0,0,0,0,0,0,87,0,0,0,0,0,0,0,0,0,0,0,0,0,0,
0,0,0,0,0,0,0,358,0,0,0,0,0,0,0,0,0,0,0,0,0,0,0,0,0,0,0,0,86,0,
0,0,0,0,0,0,0,374,0,0,0,0,0,0,0,0,0,0,0,0,0,0,0,0,0,0,0,0,0,0,
0,0,0,0,0,0,0,0,0,0,0,0,0,0,0,0,0,0,0,0,0,0,0,0,0,0,0,0,0,0,
0,0,0,0,0,0,0,0,0,0,0,0,0,0,0,0,0,0,0,0,0,0,356,0,0,0,0,0,0,0,
0,0,0,0,0,0,0,0,0,0,0,0,0,0,0,0,387,0,358,0,0,0,0,0,0,0,0,0,0,0,
0,0,0,0,0,0,0,354,0,0,0,0,0,0,0,0,403,0,374,0,0,0,0,0,0,0,0,0,0,0,
353,0,0,0,0,0,0,0,0,0,0,358,0,0,0,0,419,0,0,0,0,0,0,0,0,0,0,0,0,0,
369,370,0,0,0,0,0,0,0,0,0,374,0,0,0,0,0,0,0,0,0,0,0,0,0,0,0,0,0,0,
0,0,0,0,0,0,0,0,0,0,0,0,0,0,0,0,0,0,0,86,0,0,0,0,0,0,0,0,0,356,
0,0,0,0,0,0,0,0,0,0,0,0,0,0,0,0,0,0,0,0,0,0,0,0,0,0,0,0,0,0,
0,0,0,0,0,0,0,0,0,0,0,0,0,0,0,0,0,0,0,0,0,0,0,0,0,0,0,0,0,0,
0,0,0,0,0,0,0,0,0,0,0,0,0,0,0,0,0,0,0,0,0,0,0,0,0,0,0,0,0,0,
0,0,0,0,0,0,0,0,0,0,0,0,0,0,0,385,386,389,390,0,0,0,0,0,0,0,0,0,0,0,
0,354,0,0,0,0,0,0,0,0,0,0,0,0,0,0,0,0,0,0,0,0,0,0,0,0,0,0,0,0,
0,0,0,0,0,0,0,0,0,0,0,0,0,0,0,0,0,0,0,0,0,0,0,0,0,0,0,0,0,0,
0,0,0,0,0,0,0,0,0,0,0,0,0,0,0,0,0,0,0,0,0,0,0,0,0,0,0,0,0,0,
0,0,0,0,0,0,0,0,0,0,0,0,0,0,0,0,0,0,0,0,0,0,0,0,0,0,0,0,0,0,
0,0,0,0,0,0,0,0,0,0,0,0,0,0,0,0,0,0,0,0,0,0,0,0,0,0,0,0,0,0
</data>
 </layer>
</map>
